{"layers":[{"data":[1,1,1,1,1,1,1,1,1,1,1,1,1,1,1,1,1,1,1,1,1,1,1,1,1,1,1,1,1,1,1,1,1,1,1,1,1,1,1,1,1,1,1,1,1,1,1,1,1,1,1,1,1,1,1,1,1,1,1,1,1,1,1,1,1,1,1,1,1,1,1,1,1,1,1,1,1,1,1,1,1,1,1,1,1,1,1,1,1,1,1,1,1,1,1,1,1,1,1,1],"height":10,"id":1,"name":"floor","opacity":1,"type":"tilelayer","visible":true,"width":10,"x":0,"y":0},{"data":[0,0,0,0,0,0,0,0,0,0,0,0,0,0,0,0,0,0,0,0,0,0,0,0,0,0,0,0,0,0,0,0,0,0,0,0,0,0,0,0,0,0,0,0,0,0,0,0,0,0,0,0,0,0,0,0,0,0,0,0,0,0,0,0,0,0,0,0,0,0,0,0,0,0,0,0,0,0,0,0,0,0,0,0,0,0,0,0,0,0,0,0,0,0,2,0,0,0,0,0],"height":10,"id":2,"name":"start","opacity":1,"type":"tilelayer","visible":true,"width":10,"x":0,"y":0},{"data":[0,0,0,0,0,0,0,0,0,0,0,0,0,0,0,0,0,0,0,0,0,0,0,0,0,0,0,0,0,0,3,3,3,3,0,3,3,3,3,3,4,4,4,4,0,4,4,4,4,4,0,0,0,0,0,0,0,0,0,0,0,0,0,0,0,0,0,0,0,0,0,0,0,0,0,0,0,0,0,0,0,0,0,0,0,0,0,0,0,0,0,0,0,0,0,0,0,0,0,0],"height":10,"id":8,"name":"walls","opacity":1,"type":"tilelayer","visible":true,"width":10,"x":0,"y":0},{"name":"floorLayer","objects":[{"id":3,"name":"","visible":true,"x":2.78125,"y":2.5,"height":67,"rotation":0,"text":{"text":"Test:\nWalk next to the door, press space\n\nResult:\nThe door should open/close automatically from the bottom\nThe door should open/close manually from the top","fontfamily":"Sans Serif","pixelsize":11,"wrap":true},"type":"","width":252.4375},{"id":5,"name":"doorOpened","visible":true,"x":146.851013493779,"y":142.403703487353,"height":0,"point":true,"properties":[{"name":"closeLayer","type":"string","value":"closed_door"},{"name":"default","type":"bool","value":false},{"name":"door","type":"bool","value":true},{"name":"openLayer","type":"string","value":"opened_door"},{"name":"persist","type":"bool","value":true},{"name":"readableBy","type":"string","value":""},{"name":"writableBy","type":"string","value":""}],"rotation":0,"type":"variable","width":0},{"id":10,"name":"door_open_zone1","visible":true,"x":128.497649857831,"y":130.354552312424,"height":60.9064005106482,"properties":[{"name":"autoClose","type":"bool","value":true},{"name":"autoOpen","type":"bool","value":true},{"name":"doorVariable","type":"string","value":"doorOpened"}],"rotation":0,"type":"area","width":31.5673417280798},{"id":11,"name":"door_open_zone2","visible":true,"x":128.126269366912,"y":63.5060639470783,"height":36.0239076191029,"properties":[{"name":"autoClose","type":"bool","value":false},{"name":"autoOpen","type":"bool","value":false},{"name":"doorVariable","type":"string","value":"doorOpened"}],"rotation":0,"type":"area","width":32.310102709917}],"opacity":1,"type":"objectgroup","visible":true,"draworder":"topdown","id":3,"x":0,"y":0},{"data":[0,0,0,0,0,0,0,0,0,0,0,0,0,0,0,0,0,0,0,0,0,0,0,0,0,0,0,0,0,0,0,0,0,0,5,0,0,0,0,0,0,0,0,0,6,0,0,0,0,0,0,0,0,0,0,0,0,0,0,0,0,0,0,0,0,0,0,0,0,0,0,0,0,0,0,0,0,0,0,0,0,0,0,0,0,0,0,0,0,0,0,0,0,0,0,0,0,0,0,0],"height":10,"id":9,"name":"closed_door","opacity":1,"type":"tilelayer","visible":true,"width":10,"x":0,"y":0},{"data":[0,0,0,0,0,0,0,0,0,0,0,0,0,0,0,0,0,0,0,0,0,0,0,0,7,0,0,0,0,0,0,0,0,0,8,0,0,0,0,0,0,0,0,0,9,0,0,0,0,0,0,0,0,0,0,0,0,0,0,0,0,0,0,0,0,0,0,0,0,0,0,0,0,0,0,0,0,0,0,0,0,0,0,0,0,0,0,0,0,0,0,0,0,0,0,0,0,0,0,0],"height":10,"id":10,"name":"opened_door","opacity":1,"type":"tilelayer","visible":false,"width":10,"x":0,"y":0}],"tiledversion":"1.11.2","tilesets":[{"columns":3,"firstgid":1,"image":"office-chunk-1-f4b03935.png","imageheight":96,"imagewidth":96,"margin":0,"name":"Chunk 1","properties":[],"spacing":0,"tilecount":9,"tileheight":32,"tilewidth":32,"tiles":[{"id":2,"properties":[{"name":"collides","type":"bool","value":true}]},{"id":2,"properties":[{"name":"collides","type":"bool","value":true}]},{"id":3,"properties":[{"name":"collides","type":"bool","value":true}]},{"id":3,"properties":[{"name":"collides","type":"bool","value":true}]},{"id":4,"properties":[{"name":"collides","type":"bool","value":true}]},{"id":4,"properties":[{"name":"collides","type":"bool","value":true}]},{"id":5,"properties":[{"name":"collides","type":"bool","value":true}]},{"id":5,"properties":[{"name":"collides","type":"bool","value":true}]}]}],"type":"map","compressionlevel":-1,"height":10,"infinite":false,"nextlayerid":13,"nextobjectid":12,"orientation":"orthogonal","properties":[{"name":"script","type":"string","value":"assets/main-1a23ef05.js"}],"renderorder":"right-down","tileheight":32,"tilewidth":32,"version":"1.10","width":10}